package/converter/svg/regular/boombox.svg

<svg xmlns="http://www.w3.org/2000/svg" viewBox="0 0 640 512"><!-- Font Awesome Pro 6.0.0-alpha2 by @fontawesome - https://fontawesome.com License - https://fontawesome.com/license (Commercial License) --><path d="M592 162.264V88C592 39.469 552.531 0 504 0H136C87.469 0 48 39.469 48 88V162.264C20.443 169.4 0 194.211 0 224V448C0 483.346 28.654 512 64 512H576C611.346 512 640 483.346 640 448V224C640 194.211 619.557 169.4 592 162.264ZM96 88C96 65.938 113.938 48 136 48H504C526.062 48 544 65.938 544 88V160H448V144C448 135.162 440.836 128 432 128H400C391.164 128 384 135.162 384 144V160H352V144C352 135.162 344.836 128 336 128H304C295.164 128 288 135.162 288 144V160H256V144C256 135.162 248.836 128 240 128H208C199.164 128 192 135.162 192 144V160H96V88ZM592 448C592 456.822 584.822 464 576 464H64C55.178 464 48 456.822 48 448V224C48 215.178 55.178 208 64 208H576C584.822 208 592 215.178 592 224V448ZM176 240C122.98 240 80 282.98 80 336S122.98 432 176 432S272 389.02 272 336S229.02 240 176 240ZM176 384C149.533 384 128 362.467 128 336S149.533 288 176 288S224 309.533 224 336S202.467 384 176 384ZM464 240C410.98 240 368 282.98 368 336S410.98 432 464 432S560 389.02 560 336S517.02 240 464 240ZM464 384C437.533 384 416 362.467 416 336S437.533 288 464 288S512 309.533 512 336S490.467 384 464 384Z"/></svg>

<svg xmlns="http://www.w3.org/2000/svg" viewBox="0 0 640 512"><!--! Font Awesome Pro 6.6.0 by @fontawesome - https://fontawesome.com License - https://fontawesome.com/license (Commercial License) Copyright 2024 Fonticons, Inc. --><path d="M136 48l368 0c22.1 0 40 17.9 40 40l0 72-96 0c0-17.7-14.3-32-32-32s-32 14.3-32 32l-32 0c0-17.7-14.3-32-32-32s-32 14.3-32 32l-32 0c0-17.7-14.3-32-32-32s-32 14.3-32 32l-96 0 0-72c0-22.1 17.9-40 40-40zM48 88l0 74c-27.6 7.1-48 32.2-48 62L0 448c0 35.3 28.7 64 64 64l512 0c35.3 0 64-28.7 64-64l0-224c0-29.8-20.4-54.9-48-62l0-74c0-48.6-39.4-88-88-88L136 0C87.4 0 48 39.4 48 88zM64 208l512 0c8.8 0 16 7.2 16 16l0 224c0 8.8-7.2 16-16 16L64 464c-8.8 0-16-7.2-16-16l0-224c0-8.8 7.2-16 16-16zM176 432a96 96 0 1 0 0-192 96 96 0 1 0 0 192zm-48-96a48 48 0 1 1 96 0 48 48 0 1 1 -96 0zm432 0a96 96 0 1 0 -192 0 96 96 0 1 0 192 0zm-96-48a48 48 0 1 1 0 96 48 48 0 1 1 0-96z"/></svg>
